assets/svg/solitude/snowmaking_yes-1_QUHHd.svg

<svg height="72" viewBox="0 0 72 72" width="72" xmlns="http://www.w3.org/2000/svg"><path d="m11.5428571.22857143c.2857143.05714286.5142858.4.4.68571428l-1.1922857 4.76723083 2.963 5.13999996 2.963-5.13999996-1.248-4.71008797c-.0571428-.28571428.1142857-.62857143.4-.68571428.2857143-.05714286.6285715.11428571.6857143.4l.9462857 3.63680225 2.1965715-3.80823083c.1714285-.28571428.5142857-.34285714.8-.22857142.2857142.17142857.3428571.51428571.2285714.8l-2.0161429 3.49580225 3.159-.81008797c.2857143-.05714286.6285715.11428572.6857143.4.0571429.28571429-.1142857.62857143-.4.68571429l-4.2437143 1.11037368-3.148 5.46099996h6.476l3.3157143-3.31423079c.2285714-.22857142.5714286-.22857142.8 0 .2285714.22857143.2285714.57142858 0 .8l-2.5157143 2.51423079 3.83.0000549c.3428572 0 .5714286.2285715.5714286.5714286s-.2285714.5714286-.5714286.5714286l-3.83-.0009121 2.5157143 2.5151978c.2285714.2285714.2285714.5714286 0 .8-.1142857.1142857-.2285714.1714286-.4.1714286s-.2857143-.0571429-.4-.1714286l-3.3157143-3.3151978h-6.476l3.177 5.511 4.2718572 1.1184835c.2857143.0571429.5142857.4.4.6857143-.0571429.2857143-.4.4571428-.6857143.4l-3.1871429-.8181978 1.9871429 3.4467692c.1714286.2857143.0571428.6285714-.2285714.8-.1142858.0571429-.1714286.0571429-.2857143.0571429-.1714286 0-.4-.1142857-.5142857-.2857143l-2.1475715-3.7231978-.9381428 3.6089121c-.1142857.2285714-.3428572.4-.5714286.4h-.1714286c-.2857143-.0571429-.5142857-.4-.4-.6857143l1.2571429-4.7428572.0018571-.0073406-2.974-5.158-2.972468 5.157011.0017537.0083296 1.2571429 4.7428572c.0571429.2857143-.1142857.6285714-.4.6857143h-.1714286c-.2285714 0-.4571428-.1714286-.5714285-.4l-.93957147-3.6089121-2.14614286 3.7231978c-.11428571.1714286-.34285714.2857143-.51428571.2857143-.11428572 0-.17142857 0-.28571429-.0571429-.28571428-.1714286-.34285714-.5142857-.22857143-.8l1.98671429-3.4477692-3.18671429.8191978c-.28571428.0571428-.62857143-.1142857-.68571428-.4-.05714286-.2857143.11428571-.6285714.4-.6857143l4.27142857-1.1194835 3.17699997-5.51h-6.47699997l-3.31428572 3.3151978c-.11428571.1142857-.22857142.1714286-.4.1714286-.17142857 0-.28571428-.0571429-.4-.1714286-.22857142-.2285714-.22857142-.5714286 0-.8l2.51428572-2.5151978-3.82857143.0009121c-.34285714 0-.57142857-.2285715-.57142857-.5714286s.22857143-.5714286.57142857-.5714286l3.82857143-.0000549-2.51428572-2.51423079c-.22857142-.22857142-.22857142-.57142857 0-.8.22857143-.22857142.57142858-.22857142.8 0l3.31428572 3.31423079h6.47699997l-3.12799997-5.42499996-4.37757143-1.14637368c-.28571429-.11428572-.45714286-.4-.4-.74285715.05714286-.28571428.4-.51428571.68571429-.4l3.25385714.83523083-1.99671429-3.46380225c-.17142857-.28571429-.05714285-.62857143.22857143-.8.28571429-.17142858.62857143-.05714286.8.22857142l2.11214286 3.66423083.97357147-3.54994511c.0571428-.28571429.4-.51428572.6857142-.4z" fill="#322a2e" stroke="#322a2e" stroke-width=".5" transform="translate(22 24)"/></svg>

<?xml version="1.0" encoding="UTF-8"?>
<svg width="72px" height="72px" viewBox="0 0 72 72" version="1.1" xmlns="http://www.w3.org/2000/svg" xmlns:xlink="http://www.w3.org/1999/xlink">
    <!-- Generator: Sketch 58 (84663) - https://sketch.com -->
    <title>icons alone</title>
    <desc>Created with Sketch.</desc>
    <g id="icons-alone" stroke="none" stroke-width="1" fill="none" fill-rule="evenodd">
        <g id="Snowmaking" transform="translate(22.000000, 24.000000)" fill="#322a2e" fill-rule="nonzero" stroke="#322a2e" stroke-width="0.5">
            <g id="snow">
                <path d="M11.5428571,0.228571429 C11.8285714,0.285714286 12.0571429,0.628571429 11.9428571,0.914285714 L10.7505714,5.68151654 L13.7135714,10.8215165 L16.6765714,5.68151654 L15.4285714,0.971428571 C15.3714286,0.685714286 15.5428571,0.342857143 15.8285714,0.285714286 C16.1142857,0.228571429 16.4571429,0.4 16.5142857,0.685714286 L17.4605714,4.32251654 L19.6571429,0.514285714 C19.8285714,0.228571429 20.1714286,0.171428571 20.4571429,0.285714286 C20.7428571,0.457142857 20.8,0.8 20.6857143,1.08571429 L18.6695714,4.58151654 L21.8285714,3.77142857 C22.1142857,3.71428571 22.4571429,3.88571429 22.5142857,4.17142857 C22.5714286,4.45714286 22.4,4.8 22.1142857,4.85714286 L17.8705714,5.96751654 L14.7225714,11.4285165 L21.1985714,11.4285165 L24.5142857,8.11428571 C24.7428571,7.88571429 25.0857143,7.88571429 25.3142857,8.11428571 C25.5428571,8.34285714 25.5428571,8.68571429 25.3142857,8.91428571 L22.7985714,11.4285165 L26.6285714,11.4285714 C26.9714286,11.4285714 27.2,11.6571429 27.2,12 C27.2,12.3428571 26.9714286,12.5714286 26.6285714,12.5714286 L22.7985714,12.5705165 L25.3142857,15.0857143 C25.5428571,15.3142857 25.5428571,15.6571429 25.3142857,15.8857143 C25.2,16 25.0857143,16.0571429 24.9142857,16.0571429 C24.7428571,16.0571429 24.6285714,16 24.5142857,15.8857143 L21.1985714,12.5705165 L14.7225714,12.5705165 L17.8995714,18.0815165 L22.1714286,19.2 C22.4571429,19.2571429 22.6857143,19.6 22.5714286,19.8857143 C22.5142857,20.1714286 22.1714286,20.3428571 21.8857143,20.2857143 L18.6985714,19.4675165 L20.6857143,22.9142857 C20.8571429,23.2 20.7428571,23.5428571 20.4571429,23.7142857 C20.3428571,23.7714286 20.2857143,23.7714286 20.1714286,23.7714286 C20,23.7714286 19.7714286,23.6571429 19.6571429,23.4857143 L17.5095714,19.7625165 L16.5714286,23.3714286 C16.4571429,23.6 16.2285714,23.7714286 16,23.7714286 L15.8285714,23.7714286 L15.8285714,23.7714286 C15.5428571,23.7142857 15.3142857,23.3714286 15.4285714,23.0857143 L16.6857143,18.3428571 L16.6875714,18.3355165 L13.7135714,13.1775165 L10.7411034,18.3345275 L10.7428571,18.3428571 L12,23.0857143 C12.0571429,23.3714286 11.8857143,23.7142857 11.6,23.7714286 L11.4285714,23.7714286 C11.2,23.7714286 10.9714286,23.6 10.8571429,23.3714286 L9.91757143,19.7625165 L7.77142857,23.4857143 C7.65714286,23.6571429 7.42857143,23.7714286 7.25714286,23.7714286 C7.14285714,23.7714286 7.08571429,23.7714286 6.97142857,23.7142857 C6.68571429,23.5428571 6.62857143,23.2 6.74285714,22.9142857 L8.72957143,19.4665165 L5.54285714,20.2857143 C5.25714286,20.3428571 4.91428571,20.1714286 4.85714286,19.8857143 C4.8,19.6 4.97142857,19.2571429 5.25714286,19.2 L9.52857143,18.0805165 L12.7055714,12.5705165 L6.22857143,12.5705165 L2.91428571,15.8857143 C2.8,16 2.68571429,16.0571429 2.51428571,16.0571429 C2.34285714,16.0571429 2.22857143,16 2.11428571,15.8857143 C1.88571429,15.6571429 1.88571429,15.3142857 2.11428571,15.0857143 L4.62857143,12.5705165 L0.8,12.5714286 C0.457142857,12.5714286 0.228571429,12.3428571 0.228571429,12 C0.228571429,11.6571429 0.457142857,11.4285714 0.8,11.4285714 L4.62857143,11.4285165 L2.11428571,8.91428571 C1.88571429,8.68571429 1.88571429,8.34285714 2.11428571,8.11428571 C2.34285714,7.88571429 2.68571429,7.88571429 2.91428571,8.11428571 L6.22857143,11.4285165 L12.7055714,11.4285165 L9.57757143,6.00351654 L5.2,4.85714286 C4.91428571,4.74285714 4.74285714,4.45714286 4.8,4.11428571 C4.85714286,3.82857143 5.2,3.6 5.48571429,3.71428571 L8.73957143,4.54951654 L6.74285714,1.08571429 C6.57142857,0.8 6.68571429,0.457142857 6.97142857,0.285714286 C7.25714286,0.114285714 7.6,0.228571429 7.77142857,0.514285714 L9.88357143,4.17851654 L10.8571429,0.628571429 C10.9142857,0.342857143 11.2571429,0.114285714 11.5428571,0.228571429 Z" id="Combined-Shape"></path>
            </g>
        </g>
    </g>
</svg>
